!!!COM: Bach, Johann Sebastian
!!!CDT: 1685/3//-1750/7/28/
!!!OTL@@DE: Freu' dich sehr, o meine Seele
!!!OTL@EN:  Rejoice greatly, O my soul
!!!OPR@@DE: Cantata: Brich dem Hungrigen dein Brot, BWV 39
!!!ONB: Chorale is at the conclusion to Part II of the Cantata
!!!AGN: 4-Part Chorale
!!!SCT: Erk 067
!!!SCT: BWV 39
!!!ONB: In the cantata, the key of the chorale is B-flat
!!!YEC: Copyright 2001 by Craig Stuart Sapp
!!!license: GNU General Public License (http://www.gnu.org/copyleft/gpl.html)
!!!SMA: J.S. Bach Chorale Harmonizations, edited by Ludwig Erk, C.F. Peters
!!!PDT: 1850, 1865
!!!ONB: Harmony and Root analysis done manually by Craig Sapp (not yet proofed)
**kern	**kern	**kern	**kern	**root	**harm	**kern
!bass	!tenor	!alto	!sprno	!	!	!
*Iorgan	*Iorgan	*Iorgan	*Iorgan	*Iorgan	*	*Iorgan
*clefF4	*clefF4	*clefG2	*clefG2	*	*	*
*k[f#]	*k[f#]	*k[f#]	*k[f#]	*k[f#]	*k[f#]	*k[f#]
*G:	*G:	*G:	*G:	*G:	*G:	*G:
*M4/4	*M4/4	*M4/4	*M4/4	*M4/4	*M4/4	*M4/4
*met(C)	*met(C)	*met(C)	*met(C)	*met(C)	*met(C)	*met(C)
*MM60	*MM60	*MM60	*MM60	*MM60	*MM60	*MM60
*>[A,A,B]	*>[A,A,B]	*>[A,A,B]	*>[A,A,B]	*>[A,A,B]	*>[A,A,B]	*>[A,A,B]
*>A	*>A	*>A	*>A	*>A	*>A	*>A
4G	4B	4d	4g	4GG	I	4G 4b 4dd
4F#	4A	4d	4a	4DD	Vb	4d 4F# 4a
4G	4G	4d	4b	4GG	I	4G 4b 4dd
4D	4F#	4d	4a	4DD	V	4D 4f# 4a
=2	=2	=2	=2	=2	=2	=2
4E	4G	8d	4g	8EE	vi7	8E 8g 8b 8dd
.	.	8c#	.	8CC#	viio7b/V	8c# 8E 8g 8b
8F#	4A	4d	4f#	4DD	V	4D 4f# 4a
8G	.	.	.	.	.	.
8A	8A	4c#	4e	8AA	ii	8A 8cc 8ee
8AA	8G	.	.	8AA	ii7	8A 8cc 8ee 8gg
4D;	4F#;	4A;	4d;	4DD;	V;	4D; 4f#; 4a;
=3	=3	=3	=3	=3	=3	=3
4E	4B	4e	4g	4EE	vi	4E 4g 4b
4F#	4A	4d	4a	4DD	Vb	4d 4F# 4a
4G	8G	4d	4b	4GG	I	4G 4b 4dd
.	8F#	.	.	.	.	.
4E	4G	4c	4cc	4CC	IVb	4c 4E 4g
=4	=4	=4	=4	=4	=4	=4
8D	4G	4d	4b	4GG	Ic	4g 4b 4D
8C	.	.	.	.	.	.
4D	4F#	8d	4a	4DD	V	4D 4f# 4a
.	.	8c	.	.	.	.
2GG;	2D;	2B;	2g;	2GG;	I;	2G; 2b; 2dd;
=5:|!	=5:|!	=5:|!	=5:|!	=5:|!	=5:|!	=5:|!
4GG	4d	4g	4b	4GG	I	4G 4b 4dd
4AA	4c	8f#	4cc	4FF#	viiob	4f# 4A 4cc
.	.	8e	.	.	.	.
4BB	8F#	8d	4dd	8BB	iii	8B 8dd 8ff#
.	8G#	16e	.	8EE	Vc/II	8e 8g# 8B
.	.	16fn	.	.	.	.
8C	4A	4e	4cc	4AA	iib	4a 4C 4ee
8D	.	.	.	.	.	.
=6	=6	=6	=6	=6	=6	=6
8E	4Gn	4e	4b	4EE	vi	4E 4g 4b
8D	.	.	.	.	.	.
4C	4c	4e	4a	4AA	ii	4A 4cc 4ee
2BB;	2F#;	2d#;	2b;	2BB;	V/VI;	2B; 2dd#; 2ff#;
=7	=7	=7	=7	=7	=7	=7
4BB	8G	4dn	4dd	4GG	I	4G 4b 4dd
.	8A	.	.	.	.	.
4GG	4B	4g	4dd	4GG	I	4G 4b 4dd
4C	8c	4g	4ee	4CC	IV	4C 4e 4g
.	8B	.	.	.	.	.
4D	4A	4f#	4dd	4DD	V	4D 4f# 4a
=8	=8	=8	=8	=8	=8	=8
8E	8G	4e	4cc	4CC	IVb	4c 4E 4g
8F#	8A	.	.	.	.	.
4G	8B	8d	4b	4GG	I	4G 4b 4dd
.	8c#	8e	.	.	.	.
2D;	2d;	2f#;	2a;	2DD;	V;	2D; 2f#; 2a;
=9	=9	=9	=9	=9	=9	=9
4G	8d	4g	8b	4GG	I	4G 4b 4dd
.	8c	.	8cc	.	.	.
4GG	4B	4g	4dd	4GG	I	4G 4b 4dd
4AA	4A	8g	4cc	4AA	ii7	4A 4cc 4ee 4gg
.	.	8f#	.	.	.	.
4BB	4D	8g	8b	4GG	Ib	4g 4B 4dd
.	.	8f#	8a	.	.	.
=10	=10	=10	=10	=10	=10	=10
8C	4E	8e	4g	4CC	IV	4C 4e 4g
8BB	.	8d	.	.	.	.
4AA	4F#	4c	4a	4FF#	viiob	4f# 4A 4cc
8GG	4G	8B	2b	4GG	I	4G 4b 4dd
8AA	.	8c#	.	.	.	.
4BB	4F#	4d#	.	4BB	V/VI	4B 4dd# 4ff#
=11	=11	=11	=11	=11	=11	=11
2EE;	2E;	2e;	2g;	2EE;	vi;	2E; 2g; 2b;
4E	4G	4e	8b	4EE	vi	4E 4g 4b
.	.	.	8cc	.	.	.
4BB	4G#	4fn	4dd	4GG#	viio7/II	4G# 4b 4dd 4ff#
=12	=12	=12	=12	=12	=12	=12
4C	4A	8e	4cc	4AA	iib	4a 4C 4ee
.	.	8f#y	.	.	.	.
4C#	4E	4g	4b	4CC#	viiD7/V	4C# 4e 4g# 4b-
8D	4F#	8f#	4a	4DD	V	4D 4f# 4a
8C	.	8e	.	.	.	.
8BB	4G	4d	4b	4GG	Ib	4g 4B 4dd
8GG	.	.	.	.	.	.
=13	=13	=13	=13	=13	=13	=13
2D	4G	4.d	2a	2DD	V	2D 2f# 2a
.	4F#	.	.	.	.	.
.	.	8c	.	.	.	.
2GG;	2D;	2B;	2g;	2GG;	I;	2G; 2b; 2dd;
==	==	==	==	==	==	==
*-	*-	*-	*-	*-	*-	*-
